icons/svg/code-string.svg

﻿<?xml version="1.0" encoding="utf-8"?>
<!DOCTYPE svg PUBLIC "-//W3C//DTD SVG 1.1//EN" "http://www.w3.org/Graphics/SVG/1.1/DTD/svg11.dtd">
<svg xmlns="http://www.w3.org/2000/svg" xmlns:xlink="http://www.w3.org/1999/xlink" version="1.1" baseProfile="full" width="24" height="24" viewBox="0 0 24.00 24.00" enable-background="new 0 0 24.00 24.00" xml:space="preserve">
	<path fill="#050708" fill-opacity="1" stroke-width="0.2" stroke-linejoin="round" d="M 3,5C 3,3.896 3.894,3 5,3L 19,3C 20.1035,3 21,3.896 21,5L 21,19C 21,20.104 20.1035,21 19,21L 5,21C 3.894,21 3,20.104 3,19L 3,5 Z M 12.5,11L 11.5,11C 10.6716,11 10,10.3284 10,9.49999C 10,8.67156 10.6716,7.99999 11.5,7.99999L 12.5,7.99999C 13.3284,7.99999 14,8.67156 14,9.49999L 16,9.5C 16,7.56701 14.433,6.00001 12.5,6.00001L 11.5,6C 9.56702,6 8.00002,7.567 8.00002,9.49999C 8.00002,11.433 9.56702,13 11.5,13L 12.5,13C 13.3284,13 14,13.6715 14,14.5C 14,15.3284 13.3284,16 12.5,16L 11.5,16C 10.6716,16 10,15.3284 10,14.5L 8.00002,14.5C 8.00002,16.433 9.56702,18 11.5,18L 12.5,18C 14.433,18 16,16.433 16,14.5C 16,12.567 14.433,11 12.5,11 Z "/>
</svg>

<svg xmlns="http://www.w3.org/2000/svg" version="1.1" baseProfile="full" width="24" height="24" viewBox="0 0 24.00 24.00" xml:space="preserve"><path fill="#050708" fill-opacity="1" stroke-width=".2" stroke-linejoin="round" d="M3 5c0-1.104.894-2 2-2h14c1.104 0 2 .896 2 2v14c0 1.104-.896 2-2 2H5c-1.106 0-2-.896-2-2V5zm9.5 6h-1c-.828 0-1.5-.672-1.5-1.5S10.672 8 11.5 8h1c.828 0 1.5.672 1.5 1.5h2C16 7.567 14.433 6 12.5 6h-1C9.567 6 8 7.567 8 9.5S9.567 13 11.5 13h1c.828 0 1.5.67 1.5 1.5 0 .828-.672 1.5-1.5 1.5h-1c-.828 0-1.5-.672-1.5-1.5H8c0 1.933 1.567 3.5 3.5 3.5h1c1.933 0 3.5-1.567 3.5-3.5S14.433 11 12.5 11z"/></svg>
